X:1
T:Title
%%score { ( 1 3 ) | 2 }
L:1/8
M:6/8
K:Ab
V:1 treble nm="Grand Piano"
V:3 treble 
V:2 bass 
V:1
 z3 z2[Q:1/4=100] [CE] | [Ec]2 [Ec] [DB]2 [Ec] | [EA]2 F E2 A | [GB]2 [GB] [Ac]2 [Bd] | %4
[M:5/8] [Ac]-[Ac]- [Ac]3 |[M:1/8] [CE] |[M:3/4] [Ec]2 [Ec] [Ec]2 [=EB] | [FA]2 [=EG] [FB]2 [FA] | %8
 E2 A c2 B |[M:5/8] [A,CA]-[A,CA]- [A,CA]3 |[M:1/8] E |[M:3/4] d2 d d2 c | B2 A [GB]2 c | %13
 e2 c B2 A |[M:5/8] B-B- B3 |[M:1/8] E |[M:3/4] c2 c d2 [_Ge] | [Fe]2 [Fd] [Ff]2 [DGB] | %18
 [CEA]2 [B,EG] [EGc]2 [DEB] |[M:5/8] [CEA]-[CEA]- [CEA]3 |[M:1/8] [CE] | %21
[M:3/4] [Ec]>[Ec] [Ec]c Bc | [CA]6 | [Gd][Gd] [Gd][Gd] [_Gc][=Gd] |[M:5/8] [GB]-[GB]- [GB]3 | %25
[M:1/8] E |[M:3/4] c>c cc d[_Ge] | [Fe][Fd] [FB][Ff] [Fd][FB] | A>A AG AB | %29
[M:5/8] [CEA]-[CEA]- [CEA]3 |] %30
V:2
 z3 z2 [A,,A,] | [A,,A,]2 [A,,A,] [A,,A,]2 [A,,A,] | [C,A,]2 [D,A,D] [A,C]2 [A,CE] | %3
 [E,E]2 [E,E] [E,E]2 [E,E] |[M:5/8] [A,E]-[A,E]- [A,E]3 |[M:1/8] [A,,A,] | %6
[M:3/4] [A,,A,]2 [A,,A,] [A,,A,]2 [C,G,] | [D,F,]2 [D,D] [D,D]2 [D,A,] | %8
 [C,A,]2 [F,A,C] [E,A,E]2 [E,G,D] |[M:5/8] A,,-A,,- A,,3 |[M:1/8] E, | %11
[M:3/4] [E,B,E]2 [E,B,E] [E,B,E]2 [A,E] | [G,B,E]2 [A,CE] [E,E]2[K:treble] [A,EA] | %13
 [A,CA]2[K:bass] [A,E] [G,B,E]2 [F,B,=D] |[M:5/8] [E,G,E]-[E,G,E]- [E,G,E]3 |[M:1/8] [E,G,] | %16
[M:3/4][K:treble] [A,E]2 [A,A] [A,B,A]2[K:bass] [C,A,] | [D,A,]2 [D,A,] [D,A,]2 D, | %18
 E,2 E, E,2 E, |[M:5/8] A,,-A,,- A,,3 |[M:1/8] [A,,A,] | %21
[M:3/4] [A,,A,]>[A,,A,] [A,,A,][E,G,E] [E,G,E][E,G,E] | [A,,A,]C, E, A,2 A, | %23
 [E,B,][E,B,] [E,B,][E,B,] [E,=A,][E,B,] |[M:5/8] [E,E]G,B, E,2 |[M:1/8] [E,G,] | %26
[M:3/4][K:treble] [A,E]>[A,E] [A,E][A,A] [A,B,A][K:bass][C,A,] | %27
 [D,A,][D,A,] [D,A,][D,D] [D,D][D,D] | [E,CE]>[E,CE] [E,CE][E,B,E] [E,CE][E,DE] | %29
[M:5/8] A,,-A,,- A,,3 |] %30
V:3
 x6 | x6 | x6 | x6 |[M:5/8] x5 |[M:1/8] x |[M:3/4] x6 | x6 | x6 |[M:5/8] x5 |[M:1/8] x | %11
[M:3/4] x6 | x6 | x6 |[M:5/8] x5 |[M:1/8] x |[M:3/4] x6 | x6 | x6 |[M:5/8] x5 |[M:1/8] x | %21
[M:3/4] x6 | z A, .A,2 z [CE] | x6 |[M:5/8] z EE E2 |[M:1/8] x |[M:3/4] x6 | x6 | x6 |[M:5/8] x5 |] %30

